X: 62
T: MARQUIS OF HUNTLEY'S
%R: strathspey
B: Jean White "100 Popular Hornpipes, Reels, Jigs and Country Dances", Boston 1880 p.27
F: http://www.loc.gov/resource/sm1880.09124.0#seq-1
Z: 2014 John Chambers <jc:trillian.mit.edu>
N: There should be an 8th-note initial pickup to fix the rhythm at repeats.
M: C|
L: 1/16
K: A
% - - - - - - - - - - - - - - - - - - - - - - - - - - - - -
|:\
A,6 C2 (3E2E2E2 E3F | A3B ABcB BA3A3c |\
A,6 C2 (3E2E2E2 E3A | B3c dcBA AF3F3A |
A,6 C2 (3E2E2E2 E3F | A3B ABcB BA3A3c |\
d3ed3f fedc a3c | B3c dcBA AF3F2 :|
|: f2 |\
fedc a3cb3c a4 | fedc a3g f3ed3c |\
B3bb3f bagf b4 | B3bb3a a3gf3e |
f2ed a3c b3c a4 | fedc a3g f3ed3c |\
dcde fefg agfe fedc | BABc dcBA AF3FA3 H:|
% - - - - - - - - - - - - - - - - - - - - - - - - - - - - -

%%sep 1 1 500
%%sep 1 1 500
